X: 54
T:Jimmy Ward's Fancy
M:6/8
L:1/8
R:Double Jig
K:G
G2G GAB|AGE GED|G2G AGE|GED D2E|!
GAG GAB|AGE GAB|cBA BGE|1DED D2E:|2DED D2B|!
|:c2A BAG|ABA AGE|c2A BGE|DED D2B|!
cBA BAG|ABA ABc|dcA AGE|1GED D2B:|2GED D2E|]!
